assets/icons/sixthBlockFourthIcons.svg

<?xml version="1.0" encoding="UTF-8"?> <svg xmlns="http://www.w3.org/2000/svg" width="101" height="101" viewBox="0 0 101 101" fill="none"> <path d="M63.4303 39.0219L46.5503 57.9299L37.9843 49.3649C37.3983 48.7789 36.4493 48.7789 35.8633 49.3649C35.2773 49.9509 35.2773 50.8999 35.8633 51.4859L45.5513 61.1739C45.8323 61.4559 46.2143 61.6129 46.6123 61.6129C46.6263 61.6129 46.6403 61.6129 46.6543 61.6119C47.0673 61.5999 47.4563 61.4199 47.7313 61.1119L65.6693 41.0199C66.2213 40.4019 66.1673 39.4539 65.5493 38.9019C64.9293 38.3509 63.9833 38.4049 63.4303 39.0219Z" fill="#E29A01"></path> <path d="M92.0759 49.9994C92.1039 49.8854 92.1229 49.7674 92.1229 49.6444C92.1229 45.6464 87.9759 43.5804 84.3159 41.7564C81.7179 40.4624 79.0329 39.1234 78.3179 37.4364C77.5899 35.7144 78.6179 32.9084 79.6099 30.1934C80.9939 26.4104 82.4239 22.4994 79.7849 19.8624C77.1969 17.2744 73.4129 18.1504 69.7519 19.0014C67.1899 19.5954 64.5389 20.2084 62.7739 19.4624C61.0509 18.7334 59.6189 16.4734 58.2339 14.2854C56.2249 11.1164 53.9499 7.52344 50.0009 7.52344C46.0449 7.52344 43.8129 11.1944 41.8449 14.4344C40.4789 16.6834 39.0659 19.0074 37.3449 19.7354C35.5859 20.4804 32.9069 19.8054 30.3169 19.1544C26.6269 18.2284 22.8119 17.2664 20.2179 19.8634C17.5969 22.4834 18.8669 26.4144 20.0969 30.2174C20.9749 32.9304 21.8819 35.7364 21.1479 37.4734C20.4319 39.1674 17.8659 40.4944 15.3829 41.7784C11.8659 43.5964 7.87891 45.6574 7.87891 49.6464C7.87891 49.7704 7.89891 49.8894 7.92691 50.0044C7.89891 50.1184 7.87991 50.2364 7.87991 50.3594C7.87991 54.3484 11.8669 56.4094 15.3849 58.2274C17.8659 59.5104 20.4329 60.8374 21.1489 62.5314C21.8829 64.2684 20.9759 67.0744 20.0979 69.7884C18.8689 73.5904 17.5979 77.5204 20.2179 80.1414C22.8139 82.7384 26.6289 81.7794 30.3179 80.8504C32.9089 80.2004 35.5889 79.5274 37.3469 80.2714C39.0669 80.9984 40.4799 83.3224 41.8459 85.5704C43.8149 88.8094 46.0459 92.4804 50.0019 92.4804C53.9509 92.4804 56.2269 88.8874 58.2349 85.7184C59.6209 83.5304 61.0529 81.2704 62.7729 80.5414C64.5449 79.7934 67.1909 80.4074 69.7519 81.0024C73.4109 81.8514 77.1969 82.7314 79.7829 80.1424C82.4249 77.5044 80.9939 73.5924 79.6099 69.8104C78.6169 67.0954 77.5899 64.2894 78.3169 62.5694C79.0329 60.8814 81.7179 59.5424 84.3159 58.2484C87.9749 56.4254 92.1229 54.3584 92.1229 50.3604C92.1239 50.2334 92.1039 50.1144 92.0759 49.9994ZM82.9789 55.5594C79.8939 57.0964 76.7039 58.6864 75.5549 61.3974C74.3679 64.2074 75.6009 67.5784 76.7929 70.8374C77.9009 73.8684 78.9489 76.7334 77.6619 78.0174C76.2529 79.4294 73.4229 78.7724 70.4299 78.0784C67.4019 77.3764 64.2709 76.6494 61.6049 77.7764C59.0199 78.8704 57.3329 81.5344 55.7009 84.1104C53.9519 86.8704 52.2999 89.4774 50.0019 89.4774C47.7329 89.4774 46.1189 86.8214 44.4089 84.0094C42.7959 81.3544 41.1269 78.6084 38.5149 77.5054C35.8299 76.3674 32.6569 77.1654 29.5849 77.9384C26.5749 78.6934 23.7319 79.4114 22.3389 78.0174C21.0159 76.6954 21.9559 73.7874 22.9509 70.7084C23.9979 67.4734 25.0789 64.1274 23.9109 61.3604C22.7729 58.6684 19.7169 57.0884 16.7619 55.5594C13.7369 53.9964 10.8789 52.5194 10.8789 50.3564C10.8789 50.2324 10.8589 50.1134 10.8309 49.9974C10.8589 49.8834 10.8779 49.7654 10.8779 49.6424C10.8779 47.4794 13.7349 46.0024 16.7599 44.4394C19.7159 42.9114 22.7729 41.3314 23.9099 38.6374C25.0779 35.8714 23.9969 32.5264 22.9499 29.2904C21.9549 26.2114 21.0139 23.3034 22.3389 21.9804C23.7289 20.5874 26.5719 21.3034 29.5839 22.0604C32.6539 22.8314 35.8269 23.6324 38.5129 22.4944C41.1249 21.3904 42.7939 18.6444 44.4089 15.9894C46.1179 13.1764 47.7319 10.5204 50.0009 10.5204C52.2989 10.5204 53.9509 13.1274 55.6989 15.8884C57.3319 18.4644 59.0189 21.1284 61.6049 22.2234C64.2709 23.3504 67.4019 22.6234 70.4299 21.9204C73.4229 21.2264 76.2519 20.5694 77.6629 21.9824C78.9479 23.2654 77.8999 26.1294 76.7919 29.1614C75.5999 32.4214 74.3669 35.7924 75.5549 38.6034C76.7019 41.3134 79.8929 42.9034 82.9779 44.4404C86.1379 46.0144 89.1229 47.5024 89.1229 49.6424C89.1229 49.7664 89.1429 49.8854 89.1709 50.0004C89.1429 50.1144 89.1239 50.2324 89.1239 50.3554C89.1239 52.4984 86.1389 53.9854 82.9789 55.5594Z" fill="#E29A01"></path> </svg>

<svg xmlns="http://www.w3.org/2000/svg" width="101" height="101" fill="none"><path d="M63.43 39.022 46.55 57.93l-8.566-8.565a1.5 1.5 0 1 0-2.12 2.12l9.687 9.689c.281.282.663.439 1.061.439l.042-.001a1.5 1.5 0 0 0 1.077-.5L65.67 41.02a1.5 1.5 0 1 0-2.239-1.998Z" fill="#E29A01"/><path d="M92.076 50c.028-.115.047-.233.047-.356 0-3.998-4.147-6.064-7.807-7.888-2.598-1.294-5.283-2.633-5.998-4.32-.728-1.722.3-4.528 1.292-7.243 1.384-3.783 2.814-7.694.175-10.33-2.588-2.589-6.372-1.713-10.033-.862-2.562.594-5.213 1.207-6.978.461-1.723-.729-3.155-2.989-4.54-5.177-2.01-3.169-4.284-6.762-8.233-6.762-3.956 0-6.188 3.671-8.156 6.911-1.366 2.25-2.78 4.573-4.5 5.301-1.76.745-4.438.07-7.028-.58-3.69-.927-7.505-1.889-10.1.708-2.62 2.62-1.35 6.551-.12 10.354.878 2.713 1.785 5.52 1.05 7.256-.715 1.694-3.281 3.021-5.764 4.305-3.517 1.818-7.504 3.88-7.504 7.868 0 .124.02.243.048.358a1.482 1.482 0 0 0-.047.355c0 3.99 3.987 6.05 7.505 7.868 2.48 1.283 5.048 2.61 5.764 4.304.734 1.737-.173 4.543-1.051 7.257-1.23 3.802-2.5 7.732.12 10.353 2.596 2.597 6.41 1.638 10.1.71 2.59-.65 5.27-1.324 7.029-.58 1.72.727 3.133 3.051 4.499 5.3 1.969 3.238 4.2 6.91 8.156 6.91 3.949 0 6.225-3.594 8.233-6.763 1.386-2.188 2.818-4.448 4.538-5.177 1.772-.748 4.418-.134 6.979.461 3.659.85 7.445 1.73 10.03-.86 2.643-2.638 1.212-6.55-.172-10.332-.993-2.715-2.02-5.52-1.293-7.24.716-1.689 3.4-3.028 5.999-4.322 3.659-1.823 7.807-3.89 7.807-7.888a1.463 1.463 0 0 0-.047-.36Zm-9.097 5.56c-3.085 1.536-6.275 3.126-7.424 5.837-1.187 2.81.046 6.181 1.238 9.44 1.108 3.031 2.156 5.896.869 7.18-1.41 1.412-4.24.755-7.232.061-3.028-.702-6.16-1.429-8.825-.302-2.585 1.094-4.272 3.758-5.904 6.334-1.75 2.76-3.401 5.367-5.7 5.367-2.268 0-3.882-2.656-5.592-5.468-1.613-2.655-3.282-5.4-5.894-6.504-2.685-1.138-5.858-.34-8.93.433-3.01.755-5.853 1.473-7.246.08-1.323-1.323-.383-4.23.612-7.31 1.047-3.235 2.128-6.58.96-9.348-1.138-2.692-4.194-4.272-7.15-5.8-3.024-1.564-5.882-3.04-5.882-5.204 0-.124-.02-.243-.048-.359.028-.114.047-.232.047-.355 0-2.163 2.857-3.64 5.882-5.203 2.956-1.528 6.013-3.108 7.15-5.802 1.168-2.766.087-6.11-.96-9.347-.995-3.079-1.936-5.987-.611-7.31 1.39-1.393 4.233-.677 7.245.08 3.07.771 6.243 1.572 8.929.434 2.612-1.104 4.28-3.85 5.896-6.505 1.709-2.813 3.323-5.469 5.592-5.469 2.298 0 3.95 2.607 5.698 5.368 1.633 2.576 3.32 5.24 5.906 6.335 2.666 1.127 5.797.4 8.825-.303 2.993-.694 5.822-1.35 7.233.062 1.285 1.283.237 4.147-.871 7.18-1.192 3.26-2.425 6.63-1.237 9.441 1.147 2.71 4.338 4.3 7.423 5.837 3.16 1.574 6.145 3.062 6.145 5.202 0 .124.02.243.048.358a1.482 1.482 0 0 0-.047.355c0 2.143-2.985 3.63-6.145 5.204Z" fill="#E29A01"/></svg>
